; generated by Slic3r 1.3.0 on 2024-04-19 at 13:14:30

; external perimeters extrusion width = 0.55mm (3.04mm^3/s)
; perimeters extrusion width = 0.70mm (7.88mm^3/s)
; infill extrusion width = 0.62mm (9.31mm^3/s)
; solid infill extrusion width = 0.70mm (2.63mm^3/s)
; top infill extrusion width = 0.70mm (1.97mm^3/s)

M107
M104 S200 ; set temperature
G28 ; home all axes
G1 Z5 F5000 ; lift nozzle

; Filament gcode

M109 S200 ; set temperature and wait for it to be reached
G21 ; set units to millimeters
G90 ; use absolute coordinates
M82 ; use absolute distances for extrusion
G92 E0
G1 Z0.350 F7800.000
G1 E-2.00000 F2400.00000
G92 E0
G1 X83.415 Y84.253 F7800.000
G1 E2.00000 F2400.00000
G1 F1800
G1 X85.168 Y82.774 E2.07096
G1 X87.320 Y81.981 E2.14192
G1 X88.500 Y81.875 E2.17858
G1 X111.500 Y81.875 E2.89023
G1 X113.759 Y82.272 E2.96119
G1 X115.747 Y83.415 E3.03215
G1 X117.226 Y85.168 E3.10311
G1 X118.019 Y87.320 E3.17408
G1 X118.125 Y88.500 E3.21073
G1 X118.125 Y111.500 E3.92238
G1 X117.728 Y113.759 E3.99334
G1 X116.585 Y115.747 E4.06430
G1 X114.832 Y117.226 E4.13526
G1 X112.680 Y118.019 E4.20623
G1 X111.500 Y118.125 E4.24288
G1 X88.500 Y118.125 E4.95453
G1 X86.241 Y117.728 E5.02549
G1 X84.253 Y116.585 E5.09645
G1 X82.774 Y114.832 E5.16741
G1 X81.981 Y112.680 E5.23838
G1 X81.875 Y111.500 E5.27503
G1 X81.875 Y88.500 E5.98668
G1 X82.272 Y86.241 E6.05764
G1 X83.378 Y84.318 E6.12628
G1 E4.12628 F2400.00000
G92 E0
G1 X109.900 Y109.900 F7800.000
G1 E2.00000 F2400.00000
G1 F1800
G1 X90.100 Y109.900 E2.61265
G1 X90.100 Y90.100 E3.22530
G1 X109.900 Y90.100 E3.83796
G1 X109.900 Y109.825 E4.44829
G1 X110.525 Y110.525 F7800.000
G1 F1800
G1 X89.475 Y110.525 E5.09961
G1 X89.475 Y89.475 E5.75093
G1 X110.525 Y89.475 E6.40225
G1 X110.525 Y110.450 E7.05125
G1 X111.150 Y111.150 F7800.000
G1 F1800
G1 X88.850 Y111.150 E7.74124
G1 X88.850 Y88.850 E8.43124
G1 X111.150 Y88.850 E9.12123
G1 X111.150 Y111.075 E9.80890
G1 X110.667 Y111.021 F7800.000
G1 E7.80890 F2400.00000
G92 E0
G1 X109.032 Y109.518 F7800.000
G1 E2.00000 F2400.00000
G1 F1800
G1 X109.518 Y109.032 E2.02178
G1 X109.518 Y108.127 E2.05045
G1 X108.127 Y109.518 E2.11278
G1 X107.222 Y109.518 E2.14145
G1 X109.518 Y107.222 E2.24433
G1 X109.518 Y106.317 E2.27300
G1 X106.317 Y109.518 E2.41642
G1 X105.413 Y109.518 E2.44509
G1 X109.518 Y105.413 E2.62906
G1 X109.518 Y104.508 E2.65773
G1 X104.508 Y109.518 E2.88224
G1 X103.603 Y109.518 E2.91091
G1 X109.518 Y103.603 E3.17597
G1 X109.518 Y102.698 E3.20464
G1 X102.698 Y109.518 E3.51024
G1 X101.793 Y109.518 E3.53891
G1 X109.518 Y101.793 E3.88506
G1 X109.518 Y100.888 E3.91373
G1 X100.888 Y109.518 E4.30042
G1 X99.983 Y109.518 E4.32909
G1 X109.518 Y99.983 E4.75633
G1 X109.518 Y99.078 E4.78500
G1 X99.078 Y109.518 E5.25278
G1 X98.173 Y109.518 E5.28145
G1 X109.518 Y98.173 E5.78978
G1 X109.518 Y97.268 E5.81845
G1 X97.268 Y109.518 E6.36733
G1 X96.364 Y109.518 E6.39600
G1 X109.518 Y96.364 E6.98542
G1 X109.518 Y95.459 E7.01409
G1 X95.459 Y109.518 E7.64406
G1 X94.554 Y109.518 E7.67273
G1 X109.518 Y94.554 E8.34324
G1 X109.518 Y93.649 E8.37191
G1 X93.649 Y109.518 E9.08297
G1 X92.744 Y109.518 E9.11164
G1 X109.518 Y92.744 E9.86324
G1 X109.518 Y91.839 E9.89191
G1 X91.839 Y109.518 E10.68406
G1 X90.934 Y109.518 E10.71273
G1 X109.518 Y90.934 E11.54542
G1 X109.518 Y90.482 E11.55976
G1 X109.066 Y90.482 E11.57409
G1 X90.482 Y109.066 E12.40678
G1 X90.482 Y108.161 E12.43545
G1 X108.161 Y90.482 E13.22760
G1 X107.256 Y90.482 E13.25627
G1 X90.482 Y107.256 E14.00788
G1 X90.482 Y106.351 E14.03655
G1 X106.351 Y90.482 E14.74760
G1 X105.446 Y90.482 E14.77627
G1 X90.482 Y105.446 E15.44678
G1 X90.482 Y104.541 E15.47545
G1 X104.541 Y90.482 E16.10542
G1 X103.636 Y90.482 E16.13409
G1 X90.482 Y103.636 E16.72351
G1 X90.482 Y102.732 E16.75218
G1 X102.732 Y90.482 E17.30106
G1 X101.827 Y90.482 E17.32973
G1 X90.482 Y101.827 E17.83806
G1 X90.482 Y100.922 E17.86673
G1 X100.922 Y90.482 E18.33451
G1 X100.017 Y90.482 E18.36318
G1 X90.482 Y100.017 E18.79042
G1 X90.482 Y99.112 E18.81909
G1 X99.112 Y90.482 E19.20578
G1 X98.207 Y90.482 E19.23445
G1 X90.482 Y98.207 E19.58060
G1 X90.482 Y97.302 E19.60927
G1 X97.302 Y90.482 E19.91488
G1 X96.397 Y90.482 E19.94355
G1 X90.482 Y96.397 E20.20860
G1 X90.482 Y95.492 E20.23727
G1 X95.492 Y90.482 E20.46178
G1 X94.587 Y90.482 E20.49045
G1 X90.482 Y94.587 E20.67442
G1 X90.482 Y93.683 E20.70309
G1 X93.683 Y90.482 E20.84651
G1 X92.778 Y90.482 E20.87518
G1 X90.482 Y92.778 E20.97806
G1 X90.482 Y91.873 E21.00673
G1 X91.873 Y90.482 E21.06906
G1 X90.968 Y90.482 E21.09773
G1 X90.482 Y90.968 E21.11951
G1 Z0.550 F7800.000
G1 X109.986 Y109.986 F7800.000
G1 F3600
G1 X90.014 Y109.986 E21.49081
G1 X90.014 Y90.014 E21.86211
G1 X109.986 Y90.014 E22.23342
G1 X109.986 Y109.911 E22.60333
G1 X110.643 Y110.643 F7800.000
G1 F3600
G1 X89.357 Y110.643 E22.99907
G1 X89.357 Y89.357 E23.39480
G1 X110.643 Y89.357 E23.79054
G1 X110.643 Y110.568 E24.18488
G1 X111.225 Y111.225 F7800.000
G1 F1800
G1 X88.775 Y111.225 E24.50698
G1 X88.775 Y88.775 E24.82908
G1 X111.225 Y88.775 E25.15118
G1 X111.225 Y111.150 E25.47220
G1 X110.742 Y111.096 F7800.000
G1 X109.584 Y90.927 F7800.000
G1 F1200
G1 X109.073 Y90.416 E25.48570
G1 X108.140 Y90.416 E25.50311
G1 X109.584 Y91.860 E25.54123
G1 X109.584 Y92.793 E25.55864
G1 X107.207 Y90.416 E25.62138
G1 X106.274 Y90.416 E25.63879
G1 X109.584 Y93.726 E25.72615
G1 X109.584 Y94.658 E25.74356
G1 X105.342 Y90.416 E25.85555
G1 X104.409 Y90.416 E25.87296
G1 X109.584 Y95.591 E26.00957
G1 X109.584 Y96.524 E26.02698
G1 X103.476 Y90.416 E26.18821
G1 X102.543 Y90.416 E26.20562
G1 X109.584 Y97.457 E26.39147
G1 X109.584 Y98.390 E26.40889
G1 X101.610 Y90.416 E26.61936
G1 X100.677 Y90.416 E26.63677
G1 X109.584 Y99.323 E26.87187
G1 X109.584 Y100.256 E26.88929
G1 X99.744 Y90.416 E27.14901
G1 X98.812 Y90.416 E27.16642
G1 X109.584 Y101.188 E27.45077
G1 X109.584 Y102.121 E27.46818
G1 X97.879 Y90.416 E27.77715
G1 X96.946 Y90.416 E27.79456
G1 X109.584 Y103.054 E28.12815
G1 X109.584 Y103.987 E28.14556
G1 X96.013 Y90.416 E28.50378
G1 X95.080 Y90.416 E28.52119
G1 X109.584 Y104.920 E28.90403
G1 X109.584 Y105.853 E28.92144
G1 X94.147 Y90.416 E29.32890
G1 X93.214 Y90.416 E29.34631
G1 X109.584 Y106.786 E29.77839
G1 X109.584 Y107.719 E29.79580
G1 X92.281 Y90.416 E30.25251
G1 X91.349 Y90.416 E30.26992
G1 X109.584 Y108.651 E30.75125
G1 X109.584 Y109.584 E30.76866
G1 X90.416 Y90.416 E31.27462
G1 X90.416 Y91.349 E31.29203
G1 X108.651 Y109.584 E31.77336
G1 X107.719 Y109.584 E31.79077
G1 X90.416 Y92.281 E32.24748
G1 X90.416 Y93.214 E32.26489
G1 X106.786 Y109.584 E32.69697
G1 X105.853 Y109.584 E32.71438
G1 X90.416 Y94.147 E33.12185
G1 X90.416 Y95.080 E33.13926
G1 X104.920 Y109.584 E33.52210
G1 X103.987 Y109.584 E33.53951
G1 X90.416 Y96.013 E33.89772
G1 X90.416 Y96.946 E33.91514
G1 X103.054 Y109.584 E34.24873
G1 X102.121 Y109.584 E34.26614
G1 X90.416 Y97.879 E34.57511
G1 X90.416 Y98.811 E34.59252
G1 X101.189 Y109.584 E34.87687
G1 X100.256 Y109.584 E34.89428
G1 X90.416 Y99.744 E35.15400
G1 X90.416 Y100.677 E35.17141
G1 X99.323 Y109.584 E35.40652
G1 X98.390 Y109.584 E35.42393
G1 X90.416 Y101.610 E35.63441
G1 X90.416 Y102.543 E35.65182
G1 X97.457 Y109.584 E35.83767
G1 X96.524 Y109.584 E35.85508
G1 X90.416 Y103.476 E36.01632
G1 X90.416 Y104.409 E36.03373
G1 X95.591 Y109.584 E36.17034
G1 X94.658 Y109.584 E36.18775
G1 X90.416 Y105.342 E36.29973
G1 X90.416 Y106.274 E36.31715
G1 X93.726 Y109.584 E36.40451
G1 X92.793 Y109.584 E36.42192
G1 X90.416 Y107.207 E36.48466
G1 X90.416 Y108.140 E36.50207
G1 X91.860 Y109.584 E36.54019
G1 X90.927 Y109.584 E36.55760
G1 X90.416 Y109.073 E36.57110
G1 Z0.750 F7800.000
G1 X109.986 Y109.986 F7800.000
G1 F3600
G1 X90.014 Y109.986 E36.94240
G1 X90.014 Y90.014 E37.31370
G1 X109.986 Y90.014 E37.68501
G1 X109.986 Y109.911 E38.05492
G1 X110.643 Y110.643 F7800.000
G1 F3600
G1 X89.357 Y110.643 E38.45066
G1 X89.357 Y89.357 E38.84639
G1 X110.643 Y89.357 E39.24213
G1 X110.643 Y110.568 E39.63647
G1 X111.225 Y111.225 F7800.000
G1 F1800
G1 X88.775 Y111.225 E39.95857
G1 X88.775 Y88.775 E40.28067
G1 X111.225 Y88.775 E40.60277
G1 X111.225 Y111.150 E40.92379
G1 X110.742 Y111.096 F7800.000
G1 X109.073 Y109.584 F7800.000
G1 F1200
G1 X109.584 Y109.073 E40.93729
G1 X109.584 Y108.140 E40.95470
G1 X108.140 Y109.584 E40.99282
G1 X107.207 Y109.584 E41.01023
G1 X109.584 Y107.207 E41.07297
G1 X109.584 Y106.274 E41.09038
G1 X106.274 Y109.584 E41.17774
G1 X105.342 Y109.584 E41.19515
G1 X109.584 Y105.342 E41.30714
G1 X109.584 Y104.409 E41.32455
G1 X104.409 Y109.584 E41.46116
G1 X103.476 Y109.584 E41.47857
G1 X109.584 Y103.476 E41.63980
G1 X109.584 Y102.543 E41.65721
G1 X102.543 Y109.584 E41.84306
G1 X101.610 Y109.584 E41.86048
G1 X109.584 Y101.610 E42.07095
G1 X109.584 Y100.677 E42.08836
G1 X100.677 Y109.584 E42.32346
G1 X99.744 Y109.584 E42.34088
G1 X109.584 Y99.744 E42.60060
G1 X109.584 Y98.812 E42.61801
G1 X98.812 Y109.584 E42.90236
G1 X97.879 Y109.584 E42.91977
G1 X109.584 Y97.879 E43.22874
G1 X109.584 Y96.946 E43.24615
G1 X96.946 Y109.584 E43.57974
G1 X96.013 Y109.584 E43.59715
G1 X109.584 Y96.013 E43.95537
G1 X109.584 Y95.080 E43.97278
G1 X95.080 Y109.584 E44.35562
G1 X94.147 Y109.584 E44.37303
G1 X109.584 Y94.147 E44.78049
G1 X109.584 Y93.214 E44.79790
G1 X93.214 Y109.584 E45.22998
G1 X92.281 Y109.584 E45.24739
G1 X109.584 Y92.281 E45.70410
G1 X109.584 Y91.349 E45.72151
G1 X91.349 Y109.584 E46.20284
G1 X90.416 Y109.584 E46.22025
G1 X109.584 Y90.416 E46.72621
G1 X108.651 Y90.416 E46.74362
G1 X90.416 Y108.651 E47.22495
G1 X90.416 Y107.719 E47.24236
G1 X107.719 Y90.416 E47.69907
G1 X106.786 Y90.416 E47.71648
G1 X90.416 Y106.786 E48.14856
G1 X90.416 Y105.853 E48.16597
G1 X105.853 Y90.416 E48.57344
G1 X104.920 Y90.416 E48.59085
G1 X90.416 Y104.920 E48.97369
G1 X90.416 Y103.987 E48.99110
G1 X103.987 Y90.416 E49.34931
G1 X103.054 Y90.416 E49.36672
G1 X90.416 Y103.054 E49.70032
G1 X90.416 Y102.121 E49.71773
G1 X102.121 Y90.416 E50.02670
G1 X101.189 Y90.416 E50.04411
G1 X90.416 Y101.189 E50.32846
G1 X90.416 Y100.256 E50.34587
G1 X100.256 Y90.416 E50.60559
G1 X99.323 Y90.416 E50.62300
G1 X90.416 Y99.323 E50.85810
G1 X90.416 Y98.390 E50.87552
G1 X98.390 Y90.416 E51.08599
G1 X97.457 Y90.416 E51.10341
G1 X90.416 Y97.457 E51.28926
G1 X90.416 Y96.524 E51.30667
G1 X96.524 Y90.416 E51.46790
G1 X95.591 Y90.416 E51.48532
G1 X90.416 Y95.591 E51.62193
G1 X90.416 Y94.658 E51.63934
G1 X94.658 Y90.416 E51.75132
G1 X93.726 Y90.416 E51.76873
G1 X90.416 Y93.726 E51.85610
G1 X90.416 Y92.793 E51.87351
G1 X92.793 Y90.416 E51.93625
G1 X91.860 Y90.416 E51.95366
G1 X90.416 Y91.860 E51.99178
G1 X90.416 Y90.927 E52.00919
G1 X90.927 Y90.416 E52.02268
M106 S244.8
G1 Z0.950 F7800.000
G1 X109.986 Y109.986 F7800.000
G1 F3600
G1 X90.014 Y109.986 E52.39399
G1 X90.014 Y90.014 E52.76529
G1 X109.986 Y90.014 E53.13660
G1 X109.986 Y109.911 E53.50651
G1 X110.643 Y110.643 F7800.000
G1 F3600
G1 X89.357 Y110.643 E53.90224
G1 X89.357 Y89.357 E54.29798
G1 X110.643 Y89.357 E54.69372
G1 X110.643 Y110.568 E55.08806
G1 X111.225 Y111.225 F7800.000
G1 F1800
G1 X88.775 Y111.225 E55.41016
G1 X88.775 Y88.775 E55.73226
G1 X111.225 Y88.775 E56.05436
G1 X111.225 Y111.150 E56.37538
G1 X110.742 Y111.096 F7800.000
G1 X106.441 Y109.695 F7800.000
G1 F4800
G1 X109.454 Y98.450 E56.56712
G1 X109.607 Y97.259 F7800.000
G1 F4800
G1 X102.741 Y90.393 E56.72706
G1 X90.393 Y90.393 E56.93042
G1 X109.607 Y109.607 E57.37795
G1 X97.259 Y109.607 E57.58131
G1 X90.393 Y102.741 E57.74124
G1 X90.546 Y101.550 F7800.000
G1 F4800
G1 X93.559 Y90.305 E57.93298
G1 X90.305 Y98.078 F7800.000
G1 F4800
G1 X109.695 Y92.883 E58.26360
G1 X102.598 Y90.305 F7800.000
G1 F4800
G1 X97.402 Y109.695 E58.59423
G1 X90.305 Y107.117 F7800.000
G1 F4800
G1 X109.695 Y101.922 E58.92485
G1 Z1.150 F7800.000
G1 X109.986 Y109.986 F7800.000
G1 F3600
G1 X90.014 Y109.986 E59.29616
G1 X90.014 Y90.014 E59.66746
G1 X109.986 Y90.014 E60.03876
G1 X109.986 Y109.911 E60.40867
G1 X110.643 Y110.643 F7800.000
G1 F3600
G1 X89.357 Y110.643 E60.80441
G1 X89.357 Y89.357 E61.20015
G1 X110.643 Y89.357 E61.59589
G1 X110.643 Y110.568 E61.99023
G1 X111.225 Y111.225 F7800.000
G1 F1800
G1 X88.775 Y111.225 E62.31233
G1 X88.775 Y88.775 E62.63443
G1 X111.225 Y88.775 E62.95653
G1 X111.225 Y111.150 E63.27755
G1 X110.742 Y111.096 F7800.000
G1 X106.441 Y109.695 F7800.000
G1 F4800
G1 X109.454 Y98.450 E63.46929
G1 X109.607 Y97.259 F7800.000
G1 F4800
G1 X102.741 Y90.393 E63.62922
G1 X90.393 Y90.393 E63.83258
G1 X109.607 Y109.607 E64.28012
G1 X97.259 Y109.607 E64.48348
G1 X90.393 Y102.741 E64.64341
G1 X90.546 Y101.550 F7800.000
G1 F4800
G1 X93.559 Y90.305 E64.83515
G1 X90.305 Y98.078 F7800.000
G1 F4800
G1 X109.695 Y92.883 E65.16577
G1 X102.598 Y90.305 F7800.000
G1 F4800
G1 X97.402 Y109.695 E65.49640
G1 X90.305 Y107.117 F7800.000
G1 F4800
G1 X109.695 Y101.922 E65.82702
G1 Z1.350 F7800.000
G1 X109.986 Y109.986 F7800.000
G1 F3600
G1 X90.014 Y109.986 E66.19832
G1 X90.014 Y90.014 E66.56963
G1 X109.986 Y90.014 E66.94093
G1 X109.986 Y109.911 E67.31084
G1 X110.643 Y110.643 F7800.000
G1 F3600
G1 X89.357 Y110.643 E67.70658
G1 X89.357 Y89.357 E68.10232
G1 X110.643 Y89.357 E68.49805
G1 X110.643 Y110.568 E68.89240
G1 X111.225 Y111.225 F7800.000
G1 F1800
G1 X88.775 Y111.225 E69.21449
G1 X88.775 Y88.775 E69.53659
G1 X111.225 Y88.775 E69.85869
G1 X111.225 Y111.150 E70.17972
G1 X110.742 Y111.096 F7800.000
G1 X106.441 Y109.695 F7800.000
G1 F4800
G1 X109.454 Y98.450 E70.37145
G1 X109.607 Y97.259 F7800.000
G1 F4800
G1 X102.741 Y90.393 E70.53139
G1 X90.393 Y90.393 E70.73475
G1 X109.607 Y109.607 E71.18228
G1 X97.259 Y109.607 E71.38564
G1 X90.393 Y102.741 E71.54558
G1 X90.546 Y101.550 F7800.000
G1 F4800
G1 X93.559 Y90.305 E71.73732
G1 X90.305 Y98.078 F7800.000
G1 F4800
G1 X109.695 Y92.883 E72.06794
G1 X102.598 Y90.305 F7800.000
G1 F4800
G1 X97.402 Y109.695 E72.39856
G1 X90.305 Y107.117 F7800.000
G1 F4800
G1 X109.695 Y101.922 E72.72919
G1 Z1.550 F7800.000
G1 X109.986 Y109.986 F7800.000
G1 F3600
G1 X90.014 Y109.986 E73.10049
G1 X90.014 Y90.014 E73.47179
G1 X109.986 Y90.014 E73.84310
G1 X109.986 Y109.911 E74.21301
G1 X110.643 Y110.643 F7800.000
G1 F3600
G1 X89.357 Y110.643 E74.60875
G1 X89.357 Y89.357 E75.00448
G1 X110.643 Y89.357 E75.40022
G1 X110.643 Y110.568 E75.79456
G1 X111.225 Y111.225 F7800.000
G1 F1800
G1 X88.775 Y111.225 E76.11666
G1 X88.775 Y88.775 E76.43876
G1 X111.225 Y88.775 E76.76086
G1 X111.225 Y111.150 E77.08188
G1 X110.742 Y111.096 F7800.000
G1 X106.441 Y109.695 F7800.000
G1 F4800
G1 X109.454 Y98.450 E77.27362
G1 X109.607 Y97.259 F7800.000
G1 F4800
G1 X102.741 Y90.393 E77.43356
G1 X90.393 Y90.393 E77.63692
G1 X109.607 Y109.607 E78.08445
G1 X97.259 Y109.607 E78.28781
G1 X90.393 Y102.741 E78.44775
G1 X90.546 Y101.550 F7800.000
G1 F4800
G1 X93.559 Y90.305 E78.63948
G1 X90.305 Y98.078 F7800.000
G1 F4800
G1 X109.695 Y92.883 E78.97011
G1 X102.598 Y90.305 F7800.000
G1 F4800
G1 X97.402 Y109.695 E79.30073
G1 X90.305 Y107.117 F7800.000
G1 F4800
G1 X109.695 Y101.922 E79.63135
G1 Z1.750 F7800.000
G1 X109.986 Y109.986 F7800.000
G1 F3600
G1 X90.014 Y109.986 E80.00266
G1 X90.014 Y90.014 E80.37396
G1 X109.986 Y90.014 E80.74527
G1 X109.986 Y109.911 E81.11518
G1 X110.643 Y110.643 F7800.000
G1 F3600
G1 X89.357 Y110.643 E81.51091
G1 X89.357 Y89.357 E81.90665
G1 X110.643 Y89.357 E82.30239
G1 X110.643 Y110.568 E82.69673
G1 X111.225 Y111.225 F7800.000
G1 F1800
G1 X88.775 Y111.225 E83.01883
G1 X88.775 Y88.775 E83.34093
G1 X111.225 Y88.775 E83.66303
G1 X111.225 Y111.150 E83.98405
G1 X110.742 Y111.096 F7800.000
G1 X106.441 Y109.695 F7800.000
G1 F4800
G1 X109.454 Y98.450 E84.17579
G1 X109.607 Y97.259 F7800.000
G1 F4800
G1 X102.741 Y90.393 E84.33572
G1 X90.393 Y90.393 E84.53909
G1 X109.607 Y109.607 E84.98662
G1 X97.259 Y109.607 E85.18998
G1 X90.393 Y102.741 E85.34991
G1 X90.546 Y101.550 F7800.000
G1 F4800
G1 X93.559 Y90.305 E85.54165
G1 X90.305 Y98.078 F7800.000
G1 F4800
G1 X109.695 Y92.883 E85.87227
G1 X102.598 Y90.305 F7800.000
G1 F4800
G1 X97.402 Y109.695 E86.20290
G1 X90.305 Y107.117 F7800.000
G1 F4800
G1 X109.695 Y101.922 E86.53352
G1 Z1.950 F7800.000
G1 X109.986 Y109.986 F7800.000
G1 F3600
G1 X90.014 Y109.986 E86.90482
G1 X90.014 Y90.014 E87.27613
